X: 218
T:My Love She's But A Lassie Yet. JaW.217
M:2/4
L:1/8
Q:200
S:James Winder Ms, Lancashire, 1835-41
R:Country Dance
O:England
A:Wyresdale,Lancashire
H:1/8
Z:vmp.Chris Partington, Aug 2004
K:C
G|cCEG|cCCG|cCEG|dDDG|!
cCEG|cfed|c/B/A/G/ A/c/B/d/|cCC||!
e/f/|gefd|ecc(e/f/)|gefe|dDD(e/f/)|!
gefd|ecfd|c/B/A/G/ A/B/c/d/|cCC|]
